!!!COM: Felix Mendelssohn
!!!CNT: Deutsch
!!!TXO: Deutsch
!!!OTL: Volkslied
!!!LYR: E. von Feuchtersleben
!!!OPS: Op. 47
!!!ONM: No. 4
!!!ENC: Daniel Alt & Leigh VanHandel
!!!YOR: Sa2mmtliche Lieder fu2r eine Singstimme
!!!YOR: Neu revidirt von Dr. L. Benda, Ausgabe fu2r mittlere Stimme
!!!YOR: Braunschweig. Henry Litolff's Verlag. Boston and New York: Arthur P. Schmidt.
!!!ODT: 1839/
**kern	**silbe
*staff1	*
=1-	=1
*clefG2	*
*k[f#c#]	*
*met(C)	*
*M4/4	*
2r	.
4r	.
{4a	{Es
=2	=2
4.g	ist
8f#	best
4f#	immt
4dd	in
=3	=3
4.cc#	Got-
8b	-tes
4b	Rath,
4b	dass
=4	=4
4e	man
4f#	vom
4g	Lieb-
4b	-sten,
=5	=5
4.a	was
8g	man
4f#	hat,
4a	muss
=6	=6
4.e	schei-
8g	|
4f#}	-den.}
4r	.
=7	=7
2r	.
4r	.
{4f#	{Wie-
=8	=8
4dd	-wohl
4cc#	doch
4.b	nichts
8a	im
=9	=9
4.a	Lauf
8g#	der
4g#	Welt
4e	dem
=10	=10
4cc#	Her-
4b	-zen,
4.a	ach!
8g#	so
=11	=11
4.g#	sau-
8f#	-er
4f#	fa2llt,
4a	als
=12	=12
4.e	Schei-
8g	|
4f#}	-den!}
4r	.
=13	=13
2r	.
4r	.
{4a	{ja,
=14	=14
2.e	Schei-
4g	|
=15	=15
2.f#}	den!}
{4a	{Nun
=16	=16
4.g	musst
8f#	du
4f#	mich
4dd	auch
=17	=17
4.cc#	recht
8b	ver-
4b}	-steh'n,}
4r	.
=18	=18
2r	.
4r	.
{4b	{ja,
=19	=19
4.a	recht
8g	ver-
4f#	-steh'n,
4f#	wenn
=20	=20
4dd	Men
4cc#	schen
4.b	aus
8a	ein-
=21	=21
4.a	-an-
8g#	der
4g#	geh'n,
4b	so
=22	=22
4ee	sag
4dd	en
4cc#}	sie:}
8r	.
{8b	{auf
=23	=23
4.b	Wie
8a	der
4a}	seh'n!}
{4a	{auf
=24	=24
4.e	Wie-
8g	-der
4f#}	seh'n!}
4r	.
=25	=25
2r	.
4r	.
{4a	auf
=26	=26
2.e	Wie-
4g	-der-
=27	=27
1f#}	-she'n!}
==	==
*-	*-
